X: 33579
T: Rakes Of Kildare, The
R: jig
M: 6/8
K: Gmajor
|:EAAAGA|Bcde2f|gfgege|dBGAGD|EAAAGA|Bcde2f|
gfedBG|[M:3/4] A2A4:|[M:6/8]aaeaae|aaeab2|agfgef|
edBGG2|aaeaae|aaeab2|agfedB|[M:3/4]GA3A2:|

